bernoullicharts/pow_x_3_4__bits.svg

<?xml version="1.0" encoding="utf-8" standalone="no"?>
<!DOCTYPE svg PUBLIC "-//W3C//DTD SVG 1.1//EN"
  "http://www.w3.org/Graphics/SVG/1.1/DTD/svg11.dtd">
<!-- Created with matplotlib (https://matplotlib.org/) -->
<svg height="345.6pt" version="1.1" viewBox="0 0 460.8 345.6" width="460.8pt" xmlns="http://www.w3.org/2000/svg" xmlns:xlink="http://www.w3.org/1999/xlink">
 <defs>
  <style type="text/css">
*{stroke-linecap:butt;stroke-linejoin:round;}
  </style>
 </defs>
 <g id="figure_1">
  <g id="patch_1">
   <path d="M 0 345.6 
L 460.8 345.6 
L 460.8 0 
L 0 0 
z
" style="fill:#ffffff;"/>
  </g>
  <g id="axes_1">
   <g id="patch_2">
    <path d="M 57.6 307.584 
L 414.72 307.584 
L 414.72 41.472 
L 57.6 41.472 
z
" style="fill:#ffffff;"/>
   </g>
   <g id="matplotlib.axis_1">
    <g id="xtick_1">
     <g id="line2d_1">
      <defs>
       <path d="M 0 0 
L 0 3.5 
" id="m0958ea3332" style="stroke:#000000;stroke-width:0.8;"/>
      </defs>
      <g>
       <use style="stroke:#000000;stroke-width:0.8;" x="73.800255" xlink:href="#m0958ea3332" y="307.584"/>
      </g>
     </g>
     <g id="text_1">
      <text style="font-family:DejaVu Sans;font-size:10px;font-style:normal;font-weight:normal;text-anchor:middle;" transform="rotate(-0, 73.800255, 322.182437)" x="73.800255" y="322.182437">0.0</text>
     </g>
    </g>
    <g id="xtick_2">
     <g id="line2d_2">
      <g>
       <use style="stroke:#000000;stroke-width:0.8;" x="138.744153" xlink:href="#m0958ea3332" y="307.584"/>
      </g>
     </g>
     <g id="text_2">
      <text style="font-family:DejaVu Sans;font-size:10px;font-style:normal;font-weight:normal;text-anchor:middle;" transform="rotate(-0, 138.744153, 322.182437)" x="138.744153" y="322.182437">0.2</text>
     </g>
    </g>
    <g id="xtick_3">
     <g id="line2d_3">
      <g>
       <use style="stroke:#000000;stroke-width:0.8;" x="203.688051" xlink:href="#m0958ea3332" y="307.584"/>
      </g>
     </g>
     <g id="text_3">
      <text style="font-family:DejaVu Sans;font-size:10px;font-style:normal;font-weight:normal;text-anchor:middle;" transform="rotate(-0, 203.688051, 322.182437)" x="203.688051" y="322.182437">0.4</text>
     </g>
    </g>
    <g id="xtick_4">
     <g id="line2d_4">
      <g>
       <use style="stroke:#000000;stroke-width:0.8;" x="268.631949" xlink:href="#m0958ea3332" y="307.584"/>
      </g>
     </g>
     <g id="text_4">
      <text style="font-family:DejaVu Sans;font-size:10px;font-style:normal;font-weight:normal;text-anchor:middle;" transform="rotate(-0, 268.631949, 322.182437)" x="268.631949" y="322.182437">0.6</text>
     </g>
    </g>
    <g id="xtick_5">
     <g id="line2d_5">
      <g>
       <use style="stroke:#000000;stroke-width:0.8;" x="333.575847" xlink:href="#m0958ea3332" y="307.584"/>
      </g>
     </g>
     <g id="text_5">
      <text style="font-family:DejaVu Sans;font-size:10px;font-style:normal;font-weight:normal;text-anchor:middle;" transform="rotate(-0, 333.575847, 322.182437)" x="333.575847" y="322.182437">0.8</text>
     </g>
    </g>
    <g id="xtick_6">
     <g id="line2d_6">
      <g>
       <use style="stroke:#000000;stroke-width:0.8;" x="398.519745" xlink:href="#m0958ea3332" y="307.584"/>
      </g>
     </g>
     <g id="text_6">
      <text style="font-family:DejaVu Sans;font-size:10px;font-style:normal;font-weight:normal;text-anchor:middle;" transform="rotate(-0, 398.519745, 322.182437)" x="398.519745" y="322.182437">1.0</text>
     </g>
    </g>
    <g id="text_7">
     <text style="font-family:DejaVu Sans;font-size:10px;font-style:normal;font-weight:normal;text-anchor:middle;" transform="rotate(-0, 236.16, 335.860562)" x="236.16" y="335.860562">Probability</text>
    </g>
   </g>
   <g id="matplotlib.axis_2">
    <g id="ytick_1">
     <g id="line2d_7">
      <defs>
       <path d="M 0 0 
L -3.5 0 
" id="m5045b4cc51" style="stroke:#000000;stroke-width:0.8;"/>
      </defs>
      <g>
       <use style="stroke:#000000;stroke-width:0.8;" x="57.6" xlink:href="#m5045b4cc51" y="301.903451"/>
      </g>
     </g>
     <g id="text_8">
      <text style="font-family:DejaVu Sans;font-size:10px;font-style:normal;font-weight:normal;text-anchor:end;" transform="rotate(-0, 50.6, 305.70267)" x="50.6" y="305.70267">0</text>
     </g>
    </g>
    <g id="ytick_2">
     <g id="line2d_8">
      <g>
       <use style="stroke:#000000;stroke-width:0.8;" x="57.6" xlink:href="#m5045b4cc51" y="269.600073"/>
      </g>
     </g>
     <g id="text_9">
      <text style="font-family:DejaVu Sans;font-size:10px;font-style:normal;font-weight:normal;text-anchor:end;" transform="rotate(-0, 50.6, 273.399291)" x="50.6" y="273.399291">10</text>
     </g>
    </g>
    <g id="ytick_3">
     <g id="line2d_9">
      <g>
       <use style="stroke:#000000;stroke-width:0.8;" x="57.6" xlink:href="#m5045b4cc51" y="237.296694"/>
      </g>
     </g>
     <g id="text_10">
      <text style="font-family:DejaVu Sans;font-size:10px;font-style:normal;font-weight:normal;text-anchor:end;" transform="rotate(-0, 50.6, 241.095913)" x="50.6" y="241.095913">20</text>
     </g>
    </g>
    <g id="ytick_4">
     <g id="line2d_10">
      <g>
       <use style="stroke:#000000;stroke-width:0.8;" x="57.6" xlink:href="#m5045b4cc51" y="204.993316"/>
      </g>
     </g>
     <g id="text_11">
      <text style="font-family:DejaVu Sans;font-size:10px;font-style:normal;font-weight:normal;text-anchor:end;" transform="rotate(-0, 50.6, 208.792535)" x="50.6" y="208.792535">30</text>
     </g>
    </g>
    <g id="ytick_5">
     <g id="line2d_11">
      <g>
       <use style="stroke:#000000;stroke-width:0.8;" x="57.6" xlink:href="#m5045b4cc51" y="172.689938"/>
      </g>
     </g>
     <g id="text_12">
      <text style="font-family:DejaVu Sans;font-size:10px;font-style:normal;font-weight:normal;text-anchor:end;" transform="rotate(-0, 50.6, 176.489157)" x="50.6" y="176.489157">40</text>
     </g>
    </g>
    <g id="ytick_6">
     <g id="line2d_12">
      <g>
       <use style="stroke:#000000;stroke-width:0.8;" x="57.6" xlink:href="#m5045b4cc51" y="140.386559"/>
      </g>
     </g>
     <g id="text_13">
      <text style="font-family:DejaVu Sans;font-size:10px;font-style:normal;font-weight:normal;text-anchor:end;" transform="rotate(-0, 50.6, 144.185778)" x="50.6" y="144.185778">50</text>
     </g>
    </g>
    <g id="ytick_7">
     <g id="line2d_13">
      <g>
       <use style="stroke:#000000;stroke-width:0.8;" x="57.6" xlink:href="#m5045b4cc51" y="108.083181"/>
      </g>
     </g>
     <g id="text_14">
      <text style="font-family:DejaVu Sans;font-size:10px;font-style:normal;font-weight:normal;text-anchor:end;" transform="rotate(-0, 50.6, 111.8824)" x="50.6" y="111.8824">60</text>
     </g>
    </g>
    <g id="ytick_8">
     <g id="line2d_14">
      <g>
       <use style="stroke:#000000;stroke-width:0.8;" x="57.6" xlink:href="#m5045b4cc51" y="75.779803"/>
      </g>
     </g>
     <g id="text_15">
      <text style="font-family:DejaVu Sans;font-size:10px;font-style:normal;font-weight:normal;text-anchor:end;" transform="rotate(-0, 50.6, 79.579022)" x="50.6" y="79.579022">70</text>
     </g>
    </g>
    <g id="ytick_9">
     <g id="line2d_15">
      <g>
       <use style="stroke:#000000;stroke-width:0.8;" x="57.6" xlink:href="#m5045b4cc51" y="43.476425"/>
      </g>
     </g>
     <g id="text_16">
      <text style="font-family:DejaVu Sans;font-size:10px;font-style:normal;font-weight:normal;text-anchor:end;" transform="rotate(-0, 50.6, 47.275643)" x="50.6" y="47.275643">80</text>
     </g>
    </g>
    <g id="text_17">
     <text style="font-family:DejaVu Sans;font-size:10px;font-style:normal;font-weight:normal;text-anchor:middle;" transform="rotate(-90, 31.795312, 174.528)" x="31.795312" y="174.528">Average Bits Consumed Per Call</text>
    </g>
   </g>
   <g id="line2d_16">
    <path clip-path="url(#p31dfb4b92d)" d="M 73.832727 53.568 
L 77.112066 257.583216 
L 80.391405 267.241926 
L 83.670744 276.099512 
L 86.950083 277.960187 
L 90.229421 278.134625 
L 93.50876 281.106536 
L 96.788099 278.386592 
L 100.067438 281.119457 
L 103.346777 281.274514 
L 106.626116 280.421704 
L 109.905455 283.005975 
L 113.184793 284.01384 
L 116.464132 283.419458 
L 119.743471 285.415807 
L 123.02281 283.72311 
L 126.302149 285.150919 
L 129.581488 284.556537 
L 132.860826 286.552886 
L 136.140165 287.476762 
L 139.419504 287.121425 
L 142.698843 287.405695 
L 145.978182 287.618897 
L 149.257521 286.766088 
L 152.53686 287.806257 
L 155.816198 287.037436 
L 159.095537 287.631818 
L 162.374876 288.374796 
L 165.654215 288.439403 
L 168.933554 288.639684 
L 172.212893 288.277886 
L 175.492231 288.516931 
L 178.77157 289.350358 
L 182.050909 288.60738 
L 185.330248 289.421426 
L 188.609587 289.027324 
L 191.888926 289.421426 
L 195.168264 289.608785 
L 198.447603 289.150077 
L 201.726942 290.261313 
L 205.006281 289.905976 
L 208.28562 290.80401 
L 211.564959 289.647549 
L 214.844298 290.338842 
L 218.123636 290.623111 
L 221.402975 290.51974 
L 224.682314 290.623111 
L 227.961653 291.139965 
L 231.240992 291.430696 
L 234.520331 291.230415 
L 237.799669 290.926763 
L 241.079008 290.216089 
L 244.358347 291.256257 
L 247.637686 291.107662 
L 250.917025 291.702044 
L 254.196364 291.908786 
L 257.475702 292.309348 
L 260.755041 291.598673 
L 264.03438 291.18519 
L 267.313719 292.548393 
L 270.593058 292.341651 
L 273.872397 292.025078 
L 277.151736 292.658224 
L 280.431074 292.638842 
L 283.710413 292.638842 
L 286.989752 292.936033 
L 290.269091 293.226764 
L 293.54843 293.226764 
L 296.827769 293.633786 
L 300.107107 293.162157 
L 303.386446 293.614404 
L 306.665785 293.368898 
L 309.945124 293.343056 
L 313.224463 293.582101 
L 316.503802 293.685471 
L 319.78314 292.819741 
L 323.062479 293.879292 
L 326.341818 293.989123 
L 329.621157 294.900079 
L 332.900496 293.840528 
L 336.179835 294.396146 
L 339.459174 293.743618 
L 342.738512 293.885752 
L 346.017851 293.982663 
L 349.29719 294.086033 
L 352.576529 294.389685 
L 355.855868 294.764404 
L 359.135207 294.745022 
L 362.414545 294.770865 
L 365.693884 294.938843 
L 368.973223 294.577045 
L 372.252562 295.236034 
L 375.531901 294.486595 
L 378.81124 294.913 
L 382.090579 294.893618 
L 385.369917 295.468618 
L 388.649256 295.061595 
L 391.928595 294.984067 
L 395.207934 295.488 
L 398.487273 295.261876 
" style="fill:none;stroke:#1f77b4;stroke-linecap:square;stroke-width:1.5;"/>
   </g>
   <g id="patch_3">
    <path d="M 57.6 307.584 
L 57.6 41.472 
" style="fill:none;stroke:#000000;stroke-linecap:square;stroke-linejoin:miter;stroke-width:0.8;"/>
   </g>
   <g id="patch_4">
    <path d="M 414.72 307.584 
L 414.72 41.472 
" style="fill:none;stroke:#000000;stroke-linecap:square;stroke-linejoin:miter;stroke-width:0.8;"/>
   </g>
   <g id="patch_5">
    <path d="M 57.6 307.584 
L 414.72 307.584 
" style="fill:none;stroke:#000000;stroke-linecap:square;stroke-linejoin:miter;stroke-width:0.8;"/>
   </g>
   <g id="patch_6">
    <path d="M 57.6 41.472 
L 414.72 41.472 
" style="fill:none;stroke:#000000;stroke-linecap:square;stroke-linejoin:miter;stroke-width:0.8;"/>
   </g>
   <g id="text_18">
    <text style="font-family:DejaVu Sans;font-size:12px;font-style:normal;font-weight:normal;text-anchor:middle;" transform="rotate(-0, 236.16, 35.472)" x="236.16" y="35.472">Avg. Bits Consumed by pow(x,3/4) Algorithm</text>
   </g>
   <g id="legend_1">
    <g id="patch_7">
     <path d="M 322.080938 64.150125 
L 407.72 64.150125 
Q 409.72 64.150125 409.72 62.150125 
L 409.72 48.472 
Q 409.72 46.472 407.72 46.472 
L 322.080938 46.472 
Q 320.080938 46.472 320.080938 48.472 
L 320.080938 62.150125 
Q 320.080938 64.150125 322.080938 64.150125 
z
" style="fill:#ffffff;opacity:0.8;stroke:#cccccc;stroke-linejoin:miter;"/>
    </g>
    <g id="line2d_17">
     <path d="M 324.080938 54.570438 
L 344.080938 54.570438 
" style="fill:none;stroke:#1f77b4;stroke-linecap:square;stroke-width:1.5;"/>
    </g>
    <g id="line2d_18"/>
    <g id="text_19">
     <text style="font-family:DejaVu Sans;font-size:10px;font-style:normal;font-weight:normal;text-anchor:start;" transform="rotate(-0, 352.080938, 58.070438)" x="352.080938" y="58.070438">pow(x,3/4)</text>
    </g>
   </g>
  </g>
 </g>
 <defs>
  <clipPath id="p31dfb4b92d">
   <rect height="266.112" width="357.12" x="57.6" y="41.472"/>
  </clipPath>
 </defs>
</svg>

<svg height="460.8" viewBox="0 0 460.8 345.6" width="614.4" xmlns="http://www.w3.org/2000/svg" xmlns:xlink="http://www.w3.org/1999/xlink"><defs><style>*{stroke-linecap:butt;stroke-linejoin:round}</style></defs><g id="figure_1"><path d="M0 345.6h460.8V0H0z" fill="#fff" id="patch_1"/><g id="axes_1"><path d="M57.6 307.584h357.12V41.472H57.6z" fill="#fff" id="patch_2"/><g id="matplotlib.axis_1"><g id="xtick_1"><g id="line2d_1"><defs><path d="M0 0v3.5" id="m0958ea3332" stroke="#000" stroke-width=".8"/></defs><use x="73.8" xlink:href="#m0958ea3332" y="307.584" stroke="#000" stroke-width=".8"/></g><text x="73.8" y="322.182" font-family="DejaVu Sans" font-size="10" font-weight="400" text-anchor="middle" id="text_1">0.0</text></g><g id="xtick_2"><use x="138.744" xlink:href="#m0958ea3332" y="307.584" stroke="#000" stroke-width=".8" id="line2d_2"/><text x="138.744" y="322.182" font-family="DejaVu Sans" font-size="10" font-weight="400" text-anchor="middle" id="text_2">0.2</text></g><g id="xtick_3"><use x="203.688" xlink:href="#m0958ea3332" y="307.584" stroke="#000" stroke-width=".8" id="line2d_3"/><text x="203.688" y="322.182" font-family="DejaVu Sans" font-size="10" font-weight="400" text-anchor="middle" id="text_3">0.4</text></g><g id="xtick_4"><use x="268.632" xlink:href="#m0958ea3332" y="307.584" stroke="#000" stroke-width=".8" id="line2d_4"/><text x="268.632" y="322.182" font-family="DejaVu Sans" font-size="10" font-weight="400" text-anchor="middle" id="text_4">0.6</text></g><g id="xtick_5"><use x="333.576" xlink:href="#m0958ea3332" y="307.584" stroke="#000" stroke-width=".8" id="line2d_5"/><text x="333.576" y="322.182" font-family="DejaVu Sans" font-size="10" font-weight="400" text-anchor="middle" id="text_5">0.8</text></g><g id="xtick_6"><use x="398.52" xlink:href="#m0958ea3332" y="307.584" stroke="#000" stroke-width=".8" id="line2d_6"/><text x="398.52" y="322.182" font-family="DejaVu Sans" font-size="10" font-weight="400" text-anchor="middle" id="text_6">1.0</text></g><text x="236.16" y="335.861" font-family="DejaVu Sans" font-size="10" font-weight="400" text-anchor="middle" id="text_7">Probability</text></g><g id="matplotlib.axis_2"><g id="ytick_1"><g id="line2d_7"><defs><path d="M0 0h-3.5" id="m5045b4cc51" stroke="#000" stroke-width=".8"/></defs><use x="57.6" xlink:href="#m5045b4cc51" y="301.903" stroke="#000" stroke-width=".8"/></g><text x="50.6" y="305.703" font-family="DejaVu Sans" font-size="10" font-weight="400" text-anchor="end" id="text_8">0</text></g><g id="ytick_2"><use x="57.6" xlink:href="#m5045b4cc51" y="269.6" stroke="#000" stroke-width=".8" id="line2d_8"/><text x="50.6" y="273.399" font-family="DejaVu Sans" font-size="10" font-weight="400" text-anchor="end" id="text_9">10</text></g><g id="ytick_3"><use x="57.6" xlink:href="#m5045b4cc51" y="237.297" stroke="#000" stroke-width=".8" id="line2d_9"/><text x="50.6" y="241.096" font-family="DejaVu Sans" font-size="10" font-weight="400" text-anchor="end" id="text_10">20</text></g><g id="ytick_4"><use x="57.6" xlink:href="#m5045b4cc51" y="204.993" stroke="#000" stroke-width=".8" id="line2d_10"/><text x="50.6" y="208.793" font-family="DejaVu Sans" font-size="10" font-weight="400" text-anchor="end" id="text_11">30</text></g><g id="ytick_5"><use x="57.6" xlink:href="#m5045b4cc51" y="172.69" stroke="#000" stroke-width=".8" id="line2d_11"/><text x="50.6" y="176.489" font-family="DejaVu Sans" font-size="10" font-weight="400" text-anchor="end" id="text_12">40</text></g><g id="ytick_6"><use x="57.6" xlink:href="#m5045b4cc51" y="140.387" stroke="#000" stroke-width=".8" id="line2d_12"/><text x="50.6" y="144.186" font-family="DejaVu Sans" font-size="10" font-weight="400" text-anchor="end" id="text_13">50</text></g><g id="ytick_7"><use x="57.6" xlink:href="#m5045b4cc51" y="108.083" stroke="#000" stroke-width=".8" id="line2d_13"/><text x="50.6" y="111.882" font-family="DejaVu Sans" font-size="10" font-weight="400" text-anchor="end" id="text_14">60</text></g><g id="ytick_8"><use x="57.6" xlink:href="#m5045b4cc51" y="75.78" stroke="#000" stroke-width=".8" id="line2d_14"/><text x="50.6" y="79.579" font-family="DejaVu Sans" font-size="10" font-weight="400" text-anchor="end" id="text_15">70</text></g><g id="ytick_9"><use x="57.6" xlink:href="#m5045b4cc51" y="43.476" stroke="#000" stroke-width=".8" id="line2d_15"/><text x="50.6" y="47.276" font-family="DejaVu Sans" font-size="10" font-weight="400" text-anchor="end" id="text_16">80</text></g><text transform="rotate(-90 31.795 174.528)" x="31.795" y="174.528" font-family="DejaVu Sans" font-size="10" font-weight="400" text-anchor="middle" id="text_17">Average Bits Consumed Per Call</text></g><path clip-path="url(#p31dfb4b92d)" d="M73.833 53.568l3.28 204.015 3.278 9.659 3.28 8.858 3.28 1.86 3.278.175 3.28 2.972 3.28-2.72 3.278 2.732 3.28.156 3.28-.853 3.278 2.584 3.28 1.008 3.28-.595 3.278 1.997 3.28-1.693 3.28 1.428 3.278-.594 3.28 1.996 3.28.924 3.279-.356 3.279.285 3.28.213 3.279-.853 3.279 1.04 3.28-.769 3.279.595 3.279.743 3.28.064 3.279.2 3.279-.361 3.28.239 3.279.833 3.279-.743 3.28.814 3.279-.394 3.279.394 3.28.188 3.279-.459 3.279 1.111 3.28-.355 3.279.898 3.279-1.156 3.28.69 3.279.285 3.279-.103 3.28.103 3.279.517 3.279.29 3.28-.2 3.279-.303 3.279-.71 3.28 1.04 3.279-.15 3.279.595 3.28.207 3.279.4 3.279-.71 3.28-.414 3.279 1.363 3.28-.206 3.278-.317 3.28.633 3.28-.02h3.278l3.28.298 3.28.29h3.278l3.28.408 3.28-.472 3.278.452 3.28-.245 3.28-.026 3.278.24 3.28.102 3.28-.865 3.278 1.06 3.28.11 3.28.91 3.278-1.06 3.28.556 3.28-.652 3.279.142 3.279.097 3.28.103 3.279.304 3.279.374 3.28-.019 3.279.026 3.279.168 3.28-.362 3.279.659 3.279-.75 3.28.427 3.279-.02 3.279.576 3.28-.407 3.279-.078 3.279.504 3.28-.226" fill="none" stroke="#1f77b4" stroke-linecap="square" stroke-width="1.5" id="line2d_16"/><path d="M57.6 307.584V41.472" fill="none" stroke="#000" stroke-linecap="square" stroke-width=".8" id="patch_3"/><path d="M414.72 307.584V41.472" fill="none" stroke="#000" stroke-linecap="square" stroke-width=".8" id="patch_4"/><path d="M57.6 307.584h357.12" fill="none" stroke="#000" stroke-linecap="square" stroke-width=".8" id="patch_5"/><path d="M57.6 41.472h357.12" fill="none" stroke="#000" stroke-linecap="square" stroke-width=".8" id="patch_6"/><text x="236.16" y="35.472" font-family="DejaVu Sans" font-size="12" font-weight="400" text-anchor="middle" id="text_18">Avg. Bits Consumed by pow(x,3/4) Algorithm</text><g id="legend_1"><path d="M322.08 64.15h85.64q2 0 2-2V48.472q0-2-2-2h-85.64q-2 0-2 2V62.15q0 2 2 2z" fill="#fff" opacity=".8" stroke="#ccc" id="patch_7"/><path d="M324.08 54.57h20" fill="none" stroke="#1f77b4" stroke-linecap="square" stroke-width="1.5" id="line2d_17"/><text x="352.081" y="58.07" font-family="DejaVu Sans" font-size="10" font-weight="400" id="text_19">pow(x,3/4)</text></g></g></g><defs><clipPath id="p31dfb4b92d"><path d="M57.6 41.472h357.12v266.112H57.6z"/></clipPath></defs></svg>
